assets/img/braze_icons/code-circle-03.svg

<svg fill="none" height="24" viewBox="0 0 24 24" width="24" xmlns="http://www.w3.org/2000/svg"><path clip-rule="evenodd" d="m12 1c-6.07513 0-11 4.92487-11 11 0 6.0751 4.92487 11 11 11 6.0751 0 11-4.9249 11-11 0-6.07513-4.9249-11-11-11zm1.9806 6.19631c.1083-.54156-.2429-1.06839-.7845-1.1767-.5415-.10831-1.0684.24291-1.1767.78447l-2 10.00002c-.10829.5415.2429 1.0684.7845 1.1767.5415.1083 1.0684-.2429 1.1767-.7845zm-4.77349 1.09678c.39052.39052.39052 1.02369 0 1.41421l-2.2929 2.2929 2.2929 2.2929c.39052.3905.39052 1.0237 0 1.4142-.39053.3905-1.02369.3905-1.41422 0l-3-3c-.39052-.3905-.39052-1.0237 0-1.4142l3-3.00001c.39053-.39053 1.02369-.39053 1.41422 0zm5.58579 0c.3905-.39053 1.0237-.39053 1.4142 0l3 3.00001c.3905.3905.3905 1.0237 0 1.4142l-3 3c-.3905.3905-1.0237.3905-1.4142 0s-.3905-1.0237 0-1.4142l2.2929-2.2929-2.2929-2.2929c-.3905-.39052-.3905-1.02369 0-1.41421z" fill="#801ed7" fill-rule="evenodd"/></svg>

<svg width="24" height="24" viewBox="0 0 24 24" fill="none" xmlns="http://www.w3.org/2000/svg">
<path fill-rule="evenodd" clip-rule="evenodd" d="M12 1C5.92487 1 1 5.92487 1 12C1 18.0751 5.92487 23 12 23C18.0751 23 23 18.0751 23 12C23 5.92487 18.0751 1 12 1ZM13.9806 7.19631C14.0889 6.65475 13.7377 6.12792 13.1961 6.01961C12.6546 5.9113 12.1277 6.26252 12.0194 6.80408L10.0194 16.8041C9.91111 17.3456 10.2623 17.8725 10.8039 17.9808C11.3454 18.0891 11.8723 17.7379 11.9806 17.1963L13.9806 7.19631ZM9.20711 8.29309C9.59763 8.68361 9.59763 9.31678 9.20711 9.7073L6.91421 12.0002L9.20711 14.2931C9.59763 14.6836 9.59763 15.3168 9.20711 15.7073C8.81658 16.0978 8.18342 16.0978 7.79289 15.7073L4.79289 12.7073C4.40237 12.3168 4.40237 11.6836 4.79289 11.2931L7.79289 8.29309C8.18342 7.90256 8.81658 7.90256 9.20711 8.29309ZM14.7929 8.29309C15.1834 7.90256 15.8166 7.90256 16.2071 8.29309L19.2071 11.2931C19.5976 11.6836 19.5976 12.3168 19.2071 12.7073L16.2071 15.7073C15.8166 16.0978 15.1834 16.0978 14.7929 15.7073C14.4024 15.3168 14.4024 14.6836 14.7929 14.2931L17.0858 12.0002L14.7929 9.7073C14.4024 9.31678 14.4024 8.68361 14.7929 8.29309Z" fill="#801ED7"/>
</svg>
